X: 38234
T: Squire Woods Lamentation On Refusal Of His Halfpence
R: reel
M: 4/4
K: Dmajor
DE|F4 F3 d|A2 FA F2 ED|F4 F3 d|B2 AB F3 d|
B2 AF A2 AE|F2 ED E2 DB|D3 E FD AF|TE4 D2||
A2|Bc d2 D2 d2|de f/e/d B3 A|F2 A2 Bcdc|TB4 A3 A|
Bcde d2 D2|de f/e/d B3 A|FE F2 AF A2|BA B2 =c4|
dB d2 BA B2|AF A2 FD F2|d3 B AdAF|E4 D2||

